logos/turbopack.svg

<?xml version="1.0" encoding="UTF-8"?>
<svg width="512px" height="79px" viewBox="0 0 512 79" version="1.1" xmlns="http://www.w3.org/2000/svg" preserveAspectRatio="xMidYMid">
    <title>Turbopack</title>
    <defs>
        <linearGradient x1="50.000184%" y1="7.89569995%" x2="49.8553456%" y2="93.3433732%" id="turbopackLinearGradient-1">
            <stop stop-color="#0096FF" offset="0%"></stop>
            <stop stop-color="#FF1E56" offset="100%"></stop>
        </linearGradient>
    </defs>
    <g>
        <path d="M136.880712,30.7627471 L136.880712,21.6118962 L92.7802971,21.6118962 L92.7802971,30.7627471 L109.428203,30.7627471 L109.428203,61.1920033 L120.232787,61.1920033 L120.232787,30.7627471 L136.880712,30.7627471 Z M161.797955,61.7984546 C175.358806,61.7984546 182.80076,54.9077022 182.80076,43.5518297 L182.80076,21.6118962 L171.996175,21.6118962 L171.996175,42.5045039 C171.996175,48.8438817 168.688621,52.4270799 161.797955,52.4270799 C154.907203,52.4270799 151.599649,48.8438817 151.599649,42.5045039 L151.599649,21.6118962 L140.795064,21.6118962 L140.795064,43.5518297 C140.795064,54.9077022 148.237018,61.7984546 161.797955,61.7984546 Z M199.340263,48.0721133 L210.089771,48.0721133 L218.57905,61.1920033 L230.982595,61.1920033 L221.390047,46.9145473 C226.792946,44.9851262 230.100153,40.6853231 230.100153,34.8419831 C230.100153,26.352695 223.761122,21.6118962 214.114017,21.6118962 L188.535332,21.6118962 L188.535332,61.1920033 L199.340263,61.1920033 L199.340263,48.0721133 Z M199.340263,39.5276705 L199.340263,30.6525068 L213.562382,30.6525068 C217.365801,30.6525068 219.460626,32.3062839 219.460626,35.1176271 C219.460626,37.7636531 217.365801,39.5276705 213.562382,39.5276705 L199.340263,39.5276705 Z M235.127213,61.1920033 L263.406914,61.1920033 C272.227001,61.1920033 277.298226,57.002527 277.298226,50.0015344 C277.298226,45.315847 274.321826,42.1186197 270.793791,40.6853231 C273.219423,39.5276705 276.195824,36.7714042 276.195824,32.4165242 C276.195824,25.4155575 271.234579,21.6118962 262.469915,21.6118962 L235.127213,21.6118962 L235.127213,61.1920033 Z M245.491356,37.1022115 L245.491356,30.3768629 L261.367513,30.3768629 C264.343913,30.3768629 265.99795,31.5345155 265.99795,33.7394939 C265.99795,35.9445589 264.343913,37.1022115 261.367513,37.1022115 L245.491356,37.1022115 Z M245.491356,45.2056068 L262.359069,45.2056068 C265.280912,45.2056068 266.879526,46.6389033 266.879526,48.7888049 C266.879526,50.9387065 265.280912,52.3719165 262.359069,52.3719165 L245.491356,52.3719165 L245.491356,45.2056068 Z M303.715187,20.9503897 C289.879298,20.9503897 279.901386,29.6050944 279.901386,41.4019281 C279.901386,53.1988483 289.879298,61.8535314 303.715187,61.8535314 C317.551942,61.8535314 327.474431,53.1988483 327.474431,41.4019281 C327.474431,29.6050944 317.551942,20.9503897 303.715187,20.9503897 Z M303.715187,30.3216994 C310.992084,30.3216994 316.449539,34.6215026 316.449539,41.4019281 C316.449539,48.1824402 310.992084,52.4822433 303.715187,52.4822433 C296.439157,52.4822433 290.981701,48.1824402 290.981701,41.4019281 C290.981701,34.6215026 296.439157,30.3216994 303.715187,30.3216994 Z M441.065199,20.9503897 C452.090091,20.9503897 459.752352,25.9116907 462.784175,33.9048976 L452.917109,38.314941 C451.373053,33.6844171 447.348807,30.3216994 441.065199,30.3216994 C434.009129,30.3216994 428.440827,34.6215026 428.440827,41.4019281 C428.440827,48.1824402 434.009129,52.4822433 441.065199,52.4822433 C447.348807,52.4822433 451.373053,49.1195257 452.917109,44.4890018 L462.784175,48.8990452 C459.752352,56.8922001 452.090091,61.8535314 441.065199,61.8535314 C427.283001,61.8535314 417.415935,53.1988483 417.415935,41.4019281 C417.415935,29.6050944 427.283001,20.9503897 441.065199,20.9503897 Z M357.433283,21.6118962 C367.080388,21.6118962 373.41942,26.2424461 373.41942,35.1176271 C373.41942,43.9377139 367.080388,48.5683244 357.433283,48.5683244 L343.04576,48.5683244 L343.04576,61.1920033 L332.240829,61.1920033 L332.240829,21.6118962 L357.433283,21.6118962 Z M400.284096,21.6118962 L419.688287,61.1920033 L407.836377,61.1920033 L404.253785,53.7500496 L383.470941,53.7500496 L379.888349,61.1920033 L368.421803,61.1920033 L387.881418,21.6118962 L400.284096,21.6118962 Z M393.945065,32.1959571 L387.716014,45.0953665 L400.118693,45.0953665 L393.945065,32.1959571 Z M356.827091,30.6525068 L343.04576,30.6525068 L343.04576,39.5828339 L356.827091,39.5828339 C360.685933,39.5828339 362.780758,37.8738934 362.780758,35.1176271 C362.780758,32.3062839 360.685933,30.6525068 356.827091,30.6525068 Z M477.491248,21.6118962 L466.687183,21.6118962 L466.687183,61.1920033 L477.491248,61.1920033 L477.491248,51.3245907 L484.547317,44.9851262 L498.274092,61.1920033 L512,61.1920033 L492.320425,38.039297 L510.622213,21.6118962 L495.903883,21.6118962 L477.491248,38.314941 L477.491248,21.6118962 Z" fill="#000000"></path>
        <g>
            <path d="M34.393019,0 L12.4029825,12.5663493 L12.4459737,22.4414449 L34.393019,9.90089034 L60.1877832,24.6425981 L68.786038,29.5565007 L68.786038,19.6513112 L34.393019,0 Z M30.5238044,66.4989022 L8.59825475,53.9712451 L8.59825475,24.6640937 L8.58965649,24.6597946 L8.54236609,14.7718017 L0,19.6513112 L0,32.7550515 L0,45.8587917 L0,58.9582328 L21.9470452,71.4987874 L30.5238044,66.4989022 Z M60.1877832,53.9712451 L60.1877832,29.1007932 L68.786038,34.0146958 L68.786038,45.8587917 L68.786038,58.9582328 L34.393019,78.6138432 L25.8248581,73.7171371 L34.393019,68.7215511 L34.393019,68.7086537 L60.1877832,53.9712451 Z" fill="url(#turbopackLinearGradient-1)"></path>
            <polygon fill="#000000" points="12.4674694 29.118155 12.4674694 51.7229667 34.393019 64.254923 34.393019 41.6458121"></polygon>
            <polygon fill="#000000" points="34.393019 14.3592508 14.4149741 25.773434 36.3448228 38.3053902 56.3185686 26.8869078"></polygon>
        </g>
    </g>
</svg>

<svg preserveAspectRatio="xMidYMid" viewBox="0 0 512 79" xmlns="http://www.w3.org/2000/svg">
  <defs>
    <linearGradient id="turbopack_svg__a" x1="50%" x2="49.855%" y1="7.896%" y2="93.343%">
      <stop offset="0%" stop-color="#0096FF"/>
      <stop offset="100%" stop-color="#FF1E56"/>
    </linearGradient>
  </defs>
  <path d="M136.88 30.763v-9.151h-44.1v9.15h16.648v30.43h10.805v-30.43h16.648Zm24.918 31.035c13.56 0 21.003-6.89 21.003-18.246v-21.94h-10.805v20.893c0 6.339-3.307 9.922-10.198 9.922-6.89 0-10.198-3.583-10.198-9.922V21.612h-10.805v21.94c0 11.356 7.442 18.246 21.003 18.246Zm37.542-13.726h10.75l8.489 13.12h12.404l-9.593-14.277c5.403-1.93 8.71-6.23 8.71-12.073 0-8.49-6.339-13.23-15.986-13.23h-25.579v39.58h10.805v-13.12Zm0-8.544v-8.875h14.222c3.804 0 5.899 1.653 5.899 4.465 0 2.646-2.095 4.41-5.899 4.41H199.34Zm35.787 21.664h28.28c8.82 0 13.891-4.19 13.891-11.19 0-4.686-2.976-7.883-6.504-9.317 2.425-1.157 5.402-3.914 5.402-8.268 0-7.001-4.961-10.805-13.726-10.805h-27.343v39.58Zm10.364-24.09v-6.725h15.877c2.976 0 4.63 1.158 4.63 3.362 0 2.206-1.654 3.363-4.63 3.363H245.49Zm0 8.104h16.868c2.922 0 4.52 1.433 4.52 3.583 0 2.15-1.598 3.583-4.52 3.583h-16.868v-7.166Zm58.224-24.256c-13.836 0-23.814 8.655-23.814 20.452 0 11.797 9.978 20.452 23.814 20.452 13.837 0 23.76-8.655 23.76-20.452 0-11.797-9.923-20.452-23.76-20.452Zm0 9.372c7.277 0 12.735 4.3 12.735 11.08s-5.458 11.08-12.735 11.08c-7.276 0-12.733-4.3-12.733-11.08s5.457-11.08 12.733-11.08Zm137.35-9.372c11.025 0 18.687 4.962 21.72 12.955l-9.868 4.41c-1.544-4.63-5.568-7.993-11.852-7.993-7.056 0-12.624 4.3-12.624 11.08s5.568 11.08 12.624 11.08c6.284 0 10.308-3.362 11.852-7.993l9.867 4.41c-3.032 7.993-10.694 12.955-21.719 12.955-13.782 0-23.65-8.655-23.65-20.452 0-11.797 9.868-20.452 23.65-20.452Zm-83.632.662c9.647 0 15.986 4.63 15.986 13.506 0 8.82-6.339 13.45-15.986 13.45h-14.387v12.624H332.24v-39.58h25.192Zm42.851 0 19.404 39.58h-11.852l-3.582-7.442H383.47l-3.583 7.442h-11.466l19.46-39.58h12.402Zm-6.339 10.584-6.229 12.9h12.403l-6.174-12.9Zm-37.118-1.543h-13.781v8.93h13.781c3.859 0 5.954-1.71 5.954-4.465 0-2.812-2.095-4.465-5.954-4.465Zm120.664-9.041h-10.804v39.58h10.804v-9.867l7.056-6.34 13.727 16.207H512l-19.68-23.153 18.302-16.427h-14.718L477.49 38.315V21.612Z"/>
  <path fill="url(#turbopack_svg__a)" d="m34.393 0-21.99 12.566.043 9.875 21.947-12.54 25.795 14.742 8.598 4.914V19.65L34.393 0Zm-3.87 66.499L8.599 53.97V24.664l-.008-.004-.048-9.888L0 19.652v39.307l21.947 12.54 8.577-5ZM60.189 53.97V29.1l8.598 4.914v24.944L34.393 78.613l-8.568-4.897 8.568-4.995v-.013L60.188 53.97Z"/>
  <path d="M12.467 29.118v22.605l21.926 12.532v-22.61z"/>
  <path d="M34.393 14.36 14.415 25.772l21.93 12.532 19.974-11.418z"/>
</svg>
